static/images/uploads/sail.svg

<?xml version="1.0" encoding="UTF-8"?>
<svg width="30px" height="27px" viewBox="0 0 30 27" version="1.1" xmlns="http://www.w3.org/2000/svg" xmlns:xlink="http://www.w3.org/1999/xlink">
    <!-- Generator: Sketch 50.2 (55047) - http://www.bohemiancoding.com/sketch -->
    <title>Group</title>
    <desc>Created with Sketch.</desc>
    <defs></defs>
    <g id="-" stroke="none" stroke-width="1" fill="none" fill-rule="evenodd">
        <g id="Single-post" transform="translate(-708.000000, -373.000000)" fill="#2C3140">
            <g id="Group-2" transform="translate(690.000000, 358.000000)">
                <g id="Group" transform="translate(18.000000, 15.000000)">
                    <path d="M10.0526045,20.7373981 C5.12033011,10.0031519 10.902087,3.04995945 10.5556107,3.25702661 C-3.36042417,11.5505544 0.488100614,21.1414139 0.488100614,21.1414139 C4.32361055,14.6225927 10.3051629,21.2866862 10.0526045,20.7373981" id="Fill-1"></path>
                    <path d="M11.6567013,21.1406597 C18.3538236,17.2293295 24.830048,20.688256 24.3708907,20.4094835 C9.34281415,11.2792207 14.1966579,-0.331858434 13.8579231,0.00725926689 C4.40216269,9.47626956 11.4701571,21.2498734 11.6567013,21.1406597" id="Fill-3"></path>
                    <path d="M17.4162267,24.7443741 C15.1311485,25.5165338 13.212239,25.8386014 11.640958,25.7922791 C12.56048,25.5694215 13.551667,25.2758038 14.631633,24.8880826 C19.5226774,23.1322126 22.3336552,22.4085637 24.3021241,23.151544 C24.3980339,23.1876535 20.8835985,20.0877077 11.869858,23.7252838 C10.5567135,24.2556193 9.36372366,24.6119726 8.27698338,24.8257117 C7.75037071,24.458416 7.32644217,23.9984759 7.01553747,23.4480796 C6.94458559,23.3229729 6.86472017,23.295982 6.86472017,23.295982 C6.86472017,23.295982 7.03550383,24.0823666 7.81811371,24.9136146 C4.30011293,25.485166 2.02893983,24.4007867 0.970366366,22.174399 C0.896918696,22.0197482 0.813131306,21.9861919 0.813131306,21.9861919 C0.813131306,21.9861919 1.75618513,27.3034069 9.67997649,26.1756233 C11.5971033,26.9871752 14.7835199,27.2745923 20.0546382,25.6937986 C24.7128606,24.2968352 27.3908482,23.7245543 29.2708946,24.3307562 C29.3628825,24.3606651 25.9992644,21.8450366 17.4162267,24.7443741" id="Fill-6"></path>
                </g>
            </g>
        </g>
    </g>
</svg>

<svg width="30" height="27" xmlns="http://www.w3.org/2000/svg"><g fill="#2C3140" fill-rule="evenodd"><path d="M10.053 20.737c-4.933-10.734.85-17.687.503-17.48C-3.36 11.551.488 21.141.488 21.141c3.836-6.518 9.817.146 9.565-.404"/><path d="M11.657 21.14c6.697-3.91 13.173-.452 12.714-.73C9.343 11.28 14.197-.333 13.858.006c-9.456 9.47-2.388 21.243-2.201 21.134M17.416 24.744c-2.285.773-4.204 1.095-5.775 1.048.92-.223 1.91-.516 2.99-.904 4.892-1.756 7.703-2.48 9.671-1.736.096.036-3.418-3.064-12.432.573-1.313.53-2.506.887-3.593 1.1a4.166 4.166 0 0 1-1.261-1.377c-.071-.125-.151-.152-.151-.152s.17.786.953 1.618c-3.518.571-5.79-.513-6.848-2.74-.073-.154-.157-.188-.157-.188s.943 5.317 8.867 4.19c1.917.811 5.104 1.099 10.375-.482 4.658-1.397 7.336-1.97 9.216-1.363.092.03-3.272-2.486-11.855.413"/></g></svg>
